{
  "compressionlevel": -1,
  "height": 1,
  "infinite": false,
  "layers": [
    {
      "data": [1820],
      "height": 1,
      "id": 1,
      "name": "input_sand",
      "opacity": 1,
      "type": "tilelayer",
      "visible": true,
      "width": 1,
      "x": 0,
      "y": 0
    },
    {
      "data": [1821],
      "height": 1,
      "id": 2,
      "name": "output1_sand objects",
      "opacity": 1,
      "properties": [
        {
          "name": "Probability",
          "type": "float",
          "value": 1
        }
      ],
      "type": "tilelayer",
      "visible": true,
      "width": 1,
      "x": 0,
      "y": 0
    },
    {
      "data": [1822],
      "height": 1,
      "id": 3,
      "name": "output2_sand objects",
      "opacity": 1,
      "properties": [
        {
          "name": "Probability",
          "type": "float",
          "value": 1
        }
      ],
      "type": "tilelayer",
      "visible": true,
      "width": 1,
      "x": 0,
      "y": 0
    },
    {
      "data": [1823],
      "height": 1,
      "id": 4,
      "name": "output3_sand objects",
      "opacity": 1,
      "properties": [
        {
          "name": "Probability",
          "type": "float",
          "value": 1
        }
      ],
      "type": "tilelayer",
      "visible": true,
      "width": 1,
      "x": 0,
      "y": 0
    }
  ],
  "nextlayerid": 5,
  "nextobjectid": 1,
  "orientation": "orthogonal",
  "renderorder": "right-down",
  "tiledversion": "1.11.2",
  "tileheight": 16,
  "tilesets": [
    {
      "columns": 20,
      "firstgid": 1,
      "image": "../../../../client/img/1/tilesheet.png",
      "imageheight": 1568,
      "imagewidth": 320,
      "margin": 0,
      "name": "tilesheet",
      "spacing": 0,
      "tilecount": 1960,
      "tileheight": 16,
      "tilewidth": 16
    }
  ],
  "tilewidth": 16,
  "type": "map",
  "version": "1.10",
  "width": 1
}
